public/Logo PhoBee/Logo PhoBee/Logo-Phobee-ToutBlanc.svg

<svg width="160" height="160" viewBox="0 0 160 160" fill="none" xmlns="http://www.w3.org/2000/svg">
<path d="M17.75 68.9402H27.26C33.32 68.9402 37.43 72.8502 37.43 78.2902C37.43 83.7302 33.32 87.6002 27.26 87.6002H26.24L24.91 82.8302H27.26C30.47 82.8302 32.35 80.9502 32.35 78.2902C32.35 75.6302 30.47 73.7102 27.26 73.7102H22.84V95.4202H17.75V68.9302V68.9402Z" fill="white"/>
<path d="M39.6499 68.9399H44.5399V77.9799C45.4799 76.9199 47.0399 76.0599 49.2299 76.0599C53.2199 76.0599 56.6599 79.0299 56.6599 84.6299V95.4299H51.7699V84.8299C51.7699 82.2899 50.3199 80.7999 48.2099 80.7999C45.9399 80.7999 44.5299 82.2899 44.5299 84.8299V95.4299H39.6399V68.9399H39.6499Z" fill="white"/>
<path d="M58.8999 86.0001C58.8999 80.3301 63.0499 76.0601 68.9199 76.0601C74.7899 76.0601 78.9699 80.3201 78.9699 86.0001C78.9699 91.6801 74.8199 95.9001 68.9199 95.9001C63.0199 95.9001 58.8999 91.6401 58.8999 86.0001ZM68.9099 91.1201C72.0399 91.1201 73.9999 88.7301 73.9999 85.9601C73.9999 83.1901 72.0399 80.8001 68.9099 80.8001C65.7799 80.8001 63.8599 83.1901 63.8599 85.9601C63.8599 88.7301 65.8199 91.1201 68.9099 91.1201Z" fill="white"/>
<path d="M81.3899 68.9402H91.8399C98.3299 68.9402 100.49 73.1602 100.49 76.1802C100.49 78.5702 99.4699 80.4102 97.9099 81.5002C100.1 82.7902 101.27 85.0202 101.27 87.6402C101.27 91.2402 98.6099 95.4302 92.6199 95.4302H89.9599L88.5899 90.7302H92.1899C94.6499 90.7302 96.1399 89.4802 96.1399 87.4802C96.1399 85.4802 94.6499 84.2302 92.1899 84.2302H86.4799V95.4202H81.3899V68.9302V68.9402ZM91.7199 79.7402C94.0299 79.7402 95.4399 78.6102 95.4399 76.7302C95.4399 74.8502 94.0299 73.6402 91.7199 73.6402H86.4799V79.7402H91.7199Z" fill="white"/>
<path d="M102.98 85.6504C102.98 80.2904 106.97 76.1004 112.56 76.1004C118.12 76.0604 121.72 80.0104 121.72 84.2804C121.72 85.7704 121.21 87.3304 120.39 88.5804H115.3C116.16 87.3704 116.67 86.1904 116.67 84.9004C116.67 82.5504 114.91 80.7904 112.56 80.7904C109.82 80.7904 107.94 82.9004 107.94 85.5604C107.94 88.2204 110.01 90.7604 114.12 90.7604H121.67L120.34 95.4204H113.61C107.39 95.4204 102.97 91.2304 102.97 85.6404L102.98 85.6504Z" fill="white"/>
<path d="M123.51 85.6504C123.51 80.2904 127.5 76.1004 133.09 76.1004C138.65 76.0604 142.24 80.0104 142.24 84.2804C142.24 85.7704 141.73 87.3304 140.91 88.5804H135.82C136.68 87.3704 137.19 86.1904 137.19 84.9004C137.19 82.5504 135.43 80.7904 133.08 80.7904C130.34 80.7904 128.46 82.9004 128.46 85.5604C128.46 88.2204 130.53 90.7604 134.64 90.7604H142.19L140.86 95.4204H134.13C127.91 95.4204 123.49 91.2304 123.49 85.6404L123.51 85.6504Z" fill="white"/>
<path d="M109.47 74.4601C109.47 74.4601 108.77 69.0501 106.21 66.9501C104.88 65.8601 102.92 66.4601 102.52 68.1401C102.12 69.8201 103 72.2901 109.47 74.4601Z" fill="#FFCC00"/>
<path d="M112.27 74.46C112.27 74.46 117.09 67.49 116.32 62.4C115.92 59.75 113.02 58.42 110.82 59.94C108.62 61.47 107.06 65.22 112.27 74.45V74.46Z" fill="#FFCC00"/>
</svg>

<?xml version="1.0" encoding="UTF-8"?>
<svg id="Calque_1" data-name="Calque 1" xmlns="http://www.w3.org/2000/svg" viewBox="0 0 160 160">
  <defs>
    <style>
      .cls-1 {
        fill: #fff;
      }
    </style>
  </defs>
  <g>
    <path class="cls-1" d="M17.75,68.94h9.51c6.06,0,10.17,3.91,10.17,9.35s-4.11,9.31-10.17,9.31h-1.02l-1.33-4.77h2.35c3.21,0,5.09-1.88,5.09-4.54s-1.88-4.58-5.09-4.58h-4.42v21.71h-5.09v-26.49Z"/>
    <path class="cls-1" d="M39.65,68.94h4.89v9.04c.94-1.06,2.5-1.92,4.69-1.92,3.99,0,7.43,2.97,7.43,8.57v10.8h-4.89v-10.6c0-2.54-1.45-4.03-3.56-4.03-2.27,0-3.68,1.49-3.68,4.03v10.6h-4.89v-26.49Z"/>
    <path class="cls-1" d="M58.9,86c0-5.67,4.15-9.94,10.02-9.94s10.05,4.26,10.05,9.94-4.15,9.9-10.05,9.9-10.02-4.26-10.02-9.9ZM68.91,91.12c3.13,0,5.09-2.39,5.09-5.16s-1.96-5.16-5.09-5.16-5.05,2.39-5.05,5.16,1.96,5.16,5.05,5.16Z"/>
    <path class="cls-1" d="M81.39,68.94h10.45c6.49,0,8.65,4.22,8.65,7.24,0,2.39-1.02,4.23-2.58,5.32,2.19,1.29,3.36,3.52,3.36,6.14,0,3.6-2.66,7.79-8.65,7.79h-2.66l-1.37-4.7h3.6c2.46,0,3.95-1.25,3.95-3.25s-1.49-3.25-3.95-3.25h-5.71v11.19h-5.09v-26.49ZM91.72,79.74c2.31,0,3.72-1.13,3.72-3.01s-1.41-3.09-3.72-3.09h-5.24v6.1h5.24Z"/>
    <path class="cls-1" d="M102.98,85.65c0-5.36,3.99-9.55,9.58-9.55,5.56-.04,9.16,3.91,9.16,8.18,0,1.49-.51,3.05-1.33,4.3h-5.09c.86-1.21,1.37-2.39,1.37-3.68,0-2.35-1.76-4.11-4.11-4.11-2.74,0-4.62,2.11-4.62,4.77s2.07,5.2,6.18,5.2h7.55l-1.33,4.66h-6.73c-6.22,0-10.64-4.19-10.64-9.78Z"/>
    <path class="cls-1" d="M123.51,85.65c0-5.36,3.99-9.55,9.58-9.55,5.56-.04,9.15,3.91,9.15,8.18,0,1.49-.51,3.05-1.33,4.3h-5.09c.86-1.21,1.37-2.39,1.37-3.68,0-2.35-1.76-4.11-4.11-4.11-2.74,0-4.62,2.11-4.62,4.77s2.07,5.2,6.18,5.2h7.55l-1.33,4.66h-6.73c-6.22,0-10.64-4.19-10.64-9.78Z"/>
  </g>
  <path class="cls-1" d="M109.47,74.46s-.7-5.41-3.26-7.51c-1.33-1.09-3.29-.49-3.69,1.19s.48,4.15,6.95,6.32Z"/>
  <path class="cls-1" d="M112.27,74.46s4.82-6.97,4.05-12.06c-.4-2.65-3.3-3.98-5.5-2.46-2.2,1.53-3.76,5.28,1.45,14.51Z"/>
</svg>
